X: 19183
T: Isaac's Welcome To The World
R: jig
M: 6/8
K: Dmajor
AAA ABd|e2 f2|AAA fed|BAAF|AAA ABd|e2 f2|aba f2 d|ed e2:|
aaa fed|e2 f2|aba f2 d|ed B2|aaa fed|e2 f2|ABd dBA|fe ed|
aaa fed|e2 f2|aba f2 d|ed e2|aaa f2 d|ed e2|fed e2 f|BAAF||

